X: 4
T: The Bear Dance
R: polka
M: 2/4
L: 1/8
K: Amin
|: c/d/ | eA Ac | B/A/G AA/B/ | cc Bc | d3c/d/ |
eA Ac | B/A/G AB | cc B/A/G | A3 :|
|: A/B/ | c>e d/c/B | c/B/c/e/ d/c/B | g/d/B/d/ g_B | Af e^g |
ae cB | AB cd/e/ | f/e/d/c/ B/A/G | A3 :|


Tune 4195	Setting 21699

